!!!COM:	Bach, Johann Sebastian
!!!CDT:	1685/02/21/-1750/07/28/
!!!OTL@@DE:	O Haupt voll Blut und Wunden
!!!SCT:	BWV 244/54
!!!PC#:	74
!!!AGN:	chorale
**kern	**kern	**kern	**kern
*ICvox	*ICvox	*ICvox	*ICvox
*Ibass	*Itenor	*Ialto	*Isoprn
*I"Bass	*I"Tenor	*I"Alto	*I"Soprano
*>[A,A,B]	*>[A,A,B]	*>[A,A,B]	*>[A,A,B]
*>norep[A,B]	*>norep[A,B]	*>norep[A,B]	*>norep[A,B]
*>A	*>A	*>A	*>A
*	*oclefC4	*oclefC3	*oclefC1
*clefF4	*clefGv2	*clefG2	*clefG2
*k[b-]	*k[b-]	*k[b-]	*k[b-]
*F:	*F:	*F:	*F:
*M4/4	*M4/4	*M4/4	*M4/4
*met(c)	*met(c)	*met(c)	*met(c)
*MM100	*MM100	*MM100	*MM100
8dL	4d	4f	4a
8cJ	.	.	.
=1	=1	=1	=1
4B-	8dL	8fL	4dd
.	8eJ	8gJ	.
4A	4f	4a	4cc
4G	4g	8dL	4b-
.	.	8eJ	.
4F	4c	4f	4a
=2	=2	=2	=2
4BB-	4d	4f	2g
4C	4c	4e	.
4F;	4c;	4f;	4a;
4C#	4e	4a	4ee
=3	=3	=3	=3
8DL	4e	4a	4ff
8E	.	.	.
8F	4d	4a	4ff
8GJ	.	.	.
4A	4d	4a	8eeL
.	.	.	8ddJ
4AA	4c#	8aL	4ee
.	.	8gJ	.
=4	=4	=4	=4
2.D;	2.A;	2.f;	2.dd;
=:|!	=:|!	=:|!	=:|!
*>B	*>B	*>B	*>B
4D	8dL	4a	4ff
.	8cnXJ	.	.
=5	=5	=5	=5
4G	4B-	4g	8eeL
.	.	.	8ddJ
4A	4c	8gL	4cc
.	.	8fJ	.
8B-L	4c	4f	4dd
8AJ	.	.	.
4G	8B-L	4b-	4ee
.	8cJ	.	.
=6	=6	=6	=6
2F	4d	4b-	2ff
.	8cL	8aL	.
.	8B-J	8gJ	.
4F;	4c;	4a;	4ff;
4F	8fL	4a	4cc
.	8e-J	.	.
=7	=7	=7	=7
4B-	4d	8aL	4dd
.	.	8gJ	.
4F#	4d	4a	4cc
4G	4d	8gL	8b-L
.	.	8f#J	8aJ
4GG	4d	4g	4b-
=8	=8	=8	=8
2.D;	2.d;	2.f#;	2.a;
4BB	4d	4g	4ff
=9	=9	=9	=9
4C	8cL	4g	8eeL
.	8dJ	.	8ffJ
8cL	4e	4cc	4gg
8BJ	.	.	.
4A	4f	4cc	4ff
4G	4g	4cc	4ee
=10	=10	=10	=10
4F	4a	4cc	2dd
4G	4g	4b	.
4C;	4g;	4cc;	4ee;
4F	4c	8fL	4a
.	.	8eJ	.
=11	=11	=11	=11
4G	4B-	8dL	4b-
.	.	8eJ	.
8AL	4c	4f	4a
8B-XJ	.	.	.
4c	8cL	4f	4g
.	16B-L	.	.
.	16AJJ	.	.
4C	8GL	4e	4cc
.	8cJ	.	.
=12	=12	=12	=12
2.F;	2.c;	2.f;	2.a;
==	==	==	==
*-	*-	*-	*-
!!!YOR1: 371 vierstimmige Choralges&auml;nge von Johann Sebastian Bach, 
!!!YOR2: 4th ed. by Alfred D&ouml;rffel (Leipzig: Breitkopf und H&auml;rtel, 
!!!YOR2: c.1875). 178 pp. Plate "V.A.10".  reprint: J.S. Bach, 371 Four-Part 
!!!YOR4: Chorales (New York: Associated Music Publishers, Inc., c.1940).
!!!SMS: B&H, 4th ed, Alfred D&ouml;rffel, c.1875, plate V.A.10
!!!EED:  Craig Stuart Sapp
!!!EEV:  2009/05/22
